src/lib/packages/icons/src/assets/line/bell-times.svg

<svg xmlns="http://www.w3.org/2000/svg" width="24" height="24" fill="none"><path fill="currentColor" d="M14.378 20.378A2.73 2.73 0 0 1 12 21.75a2.73 2.73 0 0 1-2.378-1.372.75.75 0 1 1 1.296-.755c.459.787 1.705.787 2.164 0a.75.75 0 0 1 1.296.755Zm6.297-2.053a.75.75 0 0 1-.675.425H4a.75.75 0 0 1-.586-1.218c.019-.023 1.841-2.343 1.841-5.032V8.995A6.753 6.753 0 0 1 12 2.25a6.753 6.753 0 0 1 6.745 6.745V12.5c0 2.689 1.822 5.009 1.841 5.032a.751.751 0 0 1 .089.793Zm-2.062-1.075c-.619-1.092-1.368-2.813-1.368-4.75V8.995A5.251 5.251 0 0 0 12 3.75a5.251 5.251 0 0 0-5.245 5.245V12.5c0 1.937-.75 3.658-1.368 4.75h13.226ZM14.03 8.97a.75.75 0 0 0-1.061 0l-.97.97-.97-.97a.75.75 0 1 0-1.061 1.061l.97.97-.97.97a.75.75 0 0 0 1.06 1.061l.97-.97.97.97a.748.748 0 0 0 1.06 0 .75.75 0 0 0 0-1.061l-.97-.97.97-.97a.748.748 0 0 0 .002-1.061Z"/></svg>

<svg width="24" height="24" viewBox="0 0 24 24" fill="none" xmlns="http://www.w3.org/2000/svg">
<path d="M14.378 20.378C13.877 21.237 12.988 21.75 12 21.75C11.012 21.75 10.124 21.237 9.622 20.378C9.414 20.021 9.534 19.561 9.892 19.353C10.249 19.144 10.709 19.265 10.918 19.623C11.377 20.41 12.623 20.41 13.082 19.623C13.291 19.265 13.75 19.144 14.108 19.353C14.466 19.561 14.586 20.021 14.378 20.378ZM20.675 18.325C20.55 18.584 20.288 18.75 20 18.75H4C3.712 18.75 3.45 18.584 3.325 18.325C3.2 18.065 3.23501 17.757 3.41401 17.532C3.43301 17.509 5.25501 15.189 5.25501 12.5V8.995C5.25501 5.276 8.281 2.25 12 2.25C15.719 2.25 18.745 5.276 18.745 8.995V12.5C18.745 15.189 20.567 17.509 20.586 17.532C20.765 17.757 20.8 18.065 20.675 18.325ZM18.613 17.25C17.994 16.158 17.245 14.437 17.245 12.5V8.995C17.245 6.103 14.892 3.75 12 3.75C9.108 3.75 6.75501 6.103 6.75501 8.995V12.5C6.75501 14.437 6.005 16.158 5.387 17.25H18.613ZM14.03 8.97C13.737 8.677 13.262 8.677 12.969 8.97L11.999 9.94L11.029 8.97C10.736 8.677 10.261 8.677 9.96801 8.97C9.67501 9.263 9.67501 9.73801 9.96801 10.031L10.938 11.001L9.96801 11.971C9.67501 12.264 9.67501 12.739 9.96801 13.032C10.114 13.178 10.306 13.252 10.498 13.252C10.69 13.252 10.882 13.179 11.028 13.032L11.998 12.062L12.968 13.032C13.114 13.178 13.306 13.252 13.498 13.252C13.69 13.252 13.882 13.179 14.028 13.032C14.321 12.739 14.321 12.264 14.028 11.971L13.058 11.001L14.028 10.031C14.323 9.73701 14.323 9.263 14.03 8.97Z" fill="currentColor"/>
</svg>
